X:829
T:Courting Them All
R:reel
D:Wooden Flute Obsession 1
D:Kevin Burke & Jackie Daly: Eavesdropper
D:Jimmy Noonan: The Maple Leaf
Z:id:hn-reel-829
M:C|
L:1/8
K:D
(3Bcd AF dAfe | dAFA GE~E2 | dAFA d2ef | g2ag fdd2 :|
a2fd Adfd | a2fa bgeg | a2fd Adfd | gbag fdd2 |
a2fd Adfd | a2fa bge2 | (3aba g2 (3fgf ec | d2ag fddc ||
"variation of 1st bar" dAFA dAfe |
